X: 22634
T: Laington's
R: reel
M: 4/4
K: Amajor
cB|:AFEF A2 ce|{/g}fece fgaf|ec (3.c.c.c fcec|dBcA BF (3.F.F.F|
AFEF A2 ce|{/g}fece fgaf|ec (3.c.c.c ac (3.c.c.c|1 BABc A2 cB:|2 BABc A2 ed||
((3cdc) Ad ceAc|BEGB EBGB|((3dcB) AG Acec|B^dfa gbe=d|
((3cdc) Ad ceAc|((3BcB) GB EBGB|ABce {/g}feaf|ecdB A2 cB||

